app/dist/common/images/westmount-energy-ltd.svg

<svg height="18" viewBox="0 0 18 18" width="18" xmlns="http://www.w3.org/2000/svg"><path d="m0 0h18v18h-18z" fill="#f0f3fa"/><path d="m3 5h12v2h-12zm3.68 2h-1.68l1.74 6h1.68l.58-2 .58 2h1.68l1.74-6h-1.68l-.96 3.35-.78-1.94h-1.16l-.78 1.94zm-1.6 2h-2.08v2h2.58zm7.34 2 .5-2h2.08v2z" fill="#121325"/></svg>

<!-- by TradingView --><svg width="18" height="18" viewBox="0 0 18 18" xmlns="http://www.w3.org/2000/svg"><path fill="#F0F3FA" d="M0 0h18v18H0z"/><path fill="#121325" d="M3 5h12v2H3zM6.68 7H5l1.74 6h1.68L9 11l.58 2h1.68L13 7h-1.68l-.96 3.35-.78-1.94H8.42l-.78 1.94L6.68 7ZM5.08 9H3v2h2.58l-.5-2ZM12.42 11l.5-2H15v2h-2.58Z"/></svg>
